X:1
T:Quincy
T:G Major         Timothy Swan, 1801
T:Joel Barlow, 1786 (Psalm 108)                    86. 86. (C. M.)
T:Transcribed from The New England Harmony, 1801
T:No Copyright.  Transcribed from Suffolk Harmony, 1786.
Z:No Copyright.  Transcribed from Suffolk Harmony, 1786.
%%score [ 1 2 3 4 ]
L:1/8
Q:1/4=120
M:3/2
K:G
V:1 treble nm="Tr." snm="Tr."
V:2 treble nm="C." snm="C."
V:3 treble-8 nm="T." snm="T."
V:4 bass nm="B." snm="B."
V:1
 d4 | (B3 A G4) A4 | B8 d4 | (g4 d4) B4 | c8 (d2 g2) | (f3 e d4) d4 | (d4 B4) A4 | A8 B4 | %8
w: 1. A-|wake, * * my|soul, to|sound * his|praise, A- *|wake * * my|harp * to|sing: Join|
 (d4 g2 d2) (g2 f2) | e8 (d2 B2) | d8 (A2 B2) | A8 B4 | (B3 c d4) (e2 c2) | B8 A4 | G12 |] %15
w: all * * my *|powers the *|song to *|raise, And|mor- * * ning *|in- cense|bring.|
V:2
 G4 | G8 A4 | (G3 A B4) B4 | (G4 A4) (G2 F2) | G8 B4 | B8 B4 | (A4 G4) A4 | A8 (G2 B2) | B8 A4 | %9
w: 2. A-|mong the|peo- * * ple|of * his *|care, And|through the|na- * tions|round, Glad *|songs of|
w: 3. Be|thou ex-|al- * * ted,|O * my *|God, A-|bove the|star- * ry|train; Dif- *|fuse thy|
 A8 (B2 A2) | (G3 A B4) (A2 G2) | A8 B4 | (G3 A B4) (c2 A2) | G8 A4 | B12 |] %15
w: priase will *|I * * pre- *|pare, And|there * * his *|name re-|sound.|
w: hea- venly *|grace * * a- *|broad, And|teach * * the *|world thy|reign.|
V:3
 G4 | (G3 A B4) d4 | d8 B4 | (B3 c d4) d4 | e8 d4 | (d3 e f4) g4 | (f4 g2 e2) e4 | d8 d4 | %8
w: 4. So|shall * * thy|cho- sen|sons * * re-|joice, And|throng * * thy|courts * * a-|bove; While|
 (B4 c2 B2) (A2 G2) | c8 (B2 A2) | (B4 c2 B2) (A2 G2) | d8 d4 | (B2 d2 g3 f) e4 | d8 d4 | B12 |] %15
w: sin- * * ners *|hear thy *|par- * * doning *|voice, And|taste * * * re-|dee- ming|love.|
V:4
 G,4 | E,8 D,4 | G,8 G,4 | (E,4 D,4) (G,2 B,2) | C8 B,4 | B,8 G,4 | (D,4 E,4) A,4 | D,8 G,4 | %8
 G,8 D,4 | A,8 (G,2 D,2) | (G,4 A,2 G,2) (F,2 E,2) | D,8 G,4 | G,8 A,4 | (B,3 C D4) D,4 | G,12 |] %15

